X:1
T:Skinnarmarsch
O:Malung, Dalarna
C:Niss Hjalmar Matsson
L:1/8
M:2/4
K:G
R:Marsch
S:Skinnarebygd 1966-68
Z:Tobias Lekare
Q:78
!fermata!D | GG/G/ BG/B/ | d2 c2 | BB/G/ AA/F/ | GF/E/ !fermata!DD | GG/G/ BG/B/ | d2 c2 |$ 
BB/G/ AA/F/ | !fermata!G3 G | B>c BA | GF/G/ EA | AA/B/ AG | FE D2 | BB/c/ BA |$ 
GF !fermata!EF/G/ | Ad/d/ DE/F/ | G4 |]

